X:533
T: "Das Voegelein"
N: Z1213
O: Europa, Mitteleuropa, Deutschland, Schwaben
R: Liebes - Lied
M: 3/8
L: 1/16
K: G
GAB2c2 | d2e2d2 | e2d2c2 | B2ggg2
GAB2c2 | d2e2d2 | e2d2c2 | B6
B2d2d2 | d2c2c2 | c2B2B2 | B2AAA2
GAB2c2 | d2e2d2 | e2d2c2 | B6

